assets/welcome_bg.svg

<svg fill="none" height="530" viewBox="0 0 400 530" width="400" xmlns="http://www.w3.org/2000/svg"><g fill="#6c6c6c"><path clip-rule="evenodd" d="m0 364.315 325-364.315 325 364.315-216.174 165.027h-217.899zm324.989 97.838h3.697c68.525-1.972 127.806-55.954 127.683-124.971 0-23.047-10.599-55.091-21.321-73.702-11.204-22.004-26.891-47.018-42.865-72.489-23.214-37.015-47.032-74.993-58.567-106.0941v-.1233c-.062-.1232-.092-.2465-.123-.3697s-.062-.2465-.123-.3697l-5.423-15.1593c-.986-2.8347-5.053-2.8347-6.039 0l-5.546 15.529c-11.448 31.1351-35.278 69.1741-58.522 106.2781-16.044 25.611-31.81 50.777-43.033 72.922-10.723 18.61-21.322 50.654-21.322 73.701 0 68.894 59.282 122.876 127.93 124.848z" fill-rule="evenodd"/><path d="m327.722 462.903c-1.228 0-2.457 0-3.686 0s-2.458 0-3.563 0c-59.106-1.707-111.33-41.82-124.356-96.807h-196.117l215.287 163.255h217.253l215.532-163.255h-195.994c-13.026 54.987-65.25 95.1-124.356 96.807z"/></g></svg>

<svg width="400" height="530" viewBox="0 0 400 530" fill="none" xmlns="http://www.w3.org/2000/svg">
<path fill-rule="evenodd" clip-rule="evenodd" d="M0 364.315L325 0L650 364.315L433.826 529.342H215.927L0 364.315ZM324.989 462.153H328.686C397.211 460.181 456.492 406.199 456.369 337.182C456.369 314.135 445.77 282.091 435.048 263.48C423.844 241.476 408.157 216.462 392.183 190.991C368.969 153.976 345.151 115.998 333.616 84.8969V84.7736C333.554 84.6504 333.524 84.5271 333.493 84.4039C333.462 84.2807 333.431 84.1574 333.37 84.0342L327.947 68.8749C326.961 66.0402 322.894 66.0402 321.908 68.8749L316.362 84.4039C304.914 115.539 281.084 153.578 257.84 190.682C241.796 216.293 226.03 241.459 214.807 263.604C204.084 282.214 193.485 314.258 193.485 337.305C193.485 406.199 252.767 460.181 321.415 462.153H324.989Z" fill="#6C6C6C"/>
<path d="M327.722 462.903C326.494 462.903 325.265 462.903 324.036 462.903C322.807 462.903 321.578 462.903 320.473 462.903C261.367 461.196 209.143 421.083 196.117 366.096H0L215.287 529.351H432.54L648.072 366.096H452.078C439.052 421.083 386.828 461.196 327.722 462.903Z" fill="#6C6C6C"/>
</svg>
